!! 00010] TT[TB
!! Eigene Aufnahme
!!!OTL: Liaowang zai shanding By the top of the mountain
!!!ARE: Neimeng
!! Ethnic Group: Menggu
!! MM, S. 1507
!!!SCT: C0578
!!!YEM: Copyright 1995, estate of Helmut Schaffrath.
**kern
*ICvox
*Ivox
*M2/4
*k[]
*C:
{8c
16c
16d
8e
16g
16a
=1
8g
16d
16e
4c
=2
8A
16c
16d
8e
8g
=3
2d}
=4
{8E
16G
16A
4d
=5
16c
16d
16c
16A
4G
=6
8E
16D
16E
8A
16c
16d
=7
2G}
=8
{8c
16c
16d
8e
16g
16a
=9
8g
16d
16e
4c
=10
8A
16c
16d
8e
8g
=11
2d}
=12
{8E
16G
16A
4d
=13
16c
16d
16c
16A
4G
=14
8E
16D
16E
8A
16c
16d
=15
2G}
==
!!!AGN: NN
!! Saenger: Chao Lun Batou, der das Buch nur zum Nachschlagen
!!    benutzte und ansonsten auswendig sang. Da er aus dem Osten der
!!    Neimeng kommt, kennt er nicht so viele Lieder des Westens.
!!    Alle Lieder wurden mit erkaelteter, halber Stimme in meinem
!!    Zimmer gesungen. FOTO VORHANDEN (DIAS)  31.3.87
!!    Vereinzelt Verzierungen. Variante.
!!!ONB: ESAC (Essen Associative Code) Database: CHINA
!!!AMT: simple duple
!!!AIN: vox
!!!EED: Helmut Schaffrath
!!!EEV: 1.0
*-
